svg/u1f484.svg

<svg viewBox="0 0 128 128" xmlns="http://www.w3.org/2000/svg">
  <g>
    <path d="M40.05,80.51V34.17c0-16.97,6.02-29.31,12.97-29.94c6.02-0.55,11.45,1.47,17.97,5.83 c9.38,6.27,16.96,16.09,16.96,26.11v44.34c0,0-7.04,1.44-23.95,1.44S40.05,80.51,40.05,80.51z" fill="#C62828"/>
    <path d="M54.21,25.21c7.98,12.97,19.96,15.97,26.95,12.97c4.94-2.12,5.56-5.8,3.99-9.98 C79.16,12.24,61.19,2.26,53.21,4.25C48.27,5.49,47.51,14.33,54.21,25.21z" fill="#F44336"/>
    <path d="M68.34,36.84c0.75,0.51,0.05,1.07-0.8,0.75c-3.3-1.23-8.84-2.92-14.51-9.72 c-3.39-4.07-5.37-9.4-5-14.68c0.12-1.66,0.85-4.47,2.07-6.35c0.51-0.79,0.86-0.42,0.7,0.74c-0.67,4.9,0.77,9.27,2.11,12.19 C57.3,29.3,63.89,33.8,68.34,36.84z" fill="#FF8383"/>
    <path d="M93.47,96.85c0,0-9.75,2.65-29.74,2.65s-29.2-2.65-29.2-2.65V80.02l58.93-0.07V96.85z" fill="#E2A610"/>
    <polygon points="91.05,95.11 79.53,96.96 79.53,83.42 91.05,81.56 " fill="#9E740B"/>
    <path d="M87.95,79.9c0,0-8.09,2.1-25.36,2.1s-22.54-2.1-22.54-2.1V68.66c0,0,3.3,7.42,23.38,5.81 c21.39-1.71,24.53-12.42,24.53-12.42V79.9z" fill="#A12524"/>
    <path d="M87.96,76.67c0,2.24-10.81,4.05-23.96,4.05s-24-1.81-24-4.05c0,0-5.47,2.16-5.47,3.26 c0,2.77,13.19,5.02,29.47,5.02s29.47-2.25,29.47-5.02C93.47,78.82,87.96,76.5,87.96,76.67z" fill="#FFCA28"/>
    <path d="M50.99,83.9c-3.44-0.23-5.85-0.88-6.59-1.79c-1.12-1.37,0.19-2.18,1.62-2.02 c1.94,0.22,2.22,0.43,6.1,0.81c4.53,0.44,7.92,0.44,6.85,1.79C58.25,83.59,54.99,84.17,50.99,83.9z" fill="#FFF59D"/>
    <path d="M100.19,96.29c0,0-11.83,4.6-35.92,4.6s-36.45-4.55-36.45-4.55l0.04,21.82 C28.83,121.41,44.64,124,64,124c19.36,0,35.17-2.59,36.14-5.85L100.19,96.29z" fill="#424242"/>
    <path d="M96.5,120.56c-2.09,0.91-9.92,2.4-16.02,2.75V101.5l16.05-2.59L96.5,120.56z" fill="#212121"/>
    <path d="M93.42,92.21c0,2.75-13.28,4.97-29.42,4.97s-29.48-2.23-29.48-4.97c0,0-6.71,2.65-6.71,4 c0,3.4,16.2,6.16,36.19,6.16s36.19-2.76,36.19-6.16C100.19,94.86,93.42,92.01,93.42,92.21z" fill="#757575"/>
    <path d="M55.42,101.12c-3.87,0.11-10.42-0.27-14.17-1.46c-3.62-1.15-1.95-3.79,1.25-3.24 c2.95,0.51,7.32,1.37,17.77,1.49c3.13,0.03,3.29,1.08,3.09,1.75C63.08,100.61,61.79,100.95,55.42,101.12z" fill="#90A4AE"/>
  </g>
</svg>

<svg viewBox="0 0 128 128" xmlns="http://www.w3.org/2000/svg">
  <defs/>
  <path d="M40.05,80.51 L40.05,34.17 C40.05,17.2 46.07,4.86 53.02,4.23 C59.04,3.68 64.47,5.7 70.99,10.06 C80.37,16.33 87.95,26.15 87.95,36.17 L87.95,80.51 C87.95,80.51 80.91,81.95 64,81.95 C47.09,81.95 40.05,80.51 40.05,80.51 Z" fill="#C62828"/>
  <path d="M54.21,25.21 C62.19,38.18 74.17,41.18 81.16,38.18 C86.1,36.06 86.72,32.38 85.15,28.2 C79.16,12.24 61.19,2.26 53.21,4.25 C48.27,5.49 47.51,14.33 54.21,25.21 Z" fill="#F44336"/>
  <path d="M68.34,36.84 C69.09,37.35 68.39,37.91 67.54,37.59 C64.24,36.36 58.7,34.67 53.03,27.87 C49.64,23.8 47.66,18.47 48.03,13.19 C48.15,11.53 48.88,8.72 50.1,6.84 C50.61,6.05 50.96,6.42 50.8,7.58 C50.13,12.48 51.57,16.85 52.91,19.77 C57.3,29.3 63.89,33.8 68.34,36.84 Z" fill="#FF8383"/>
  <path d="M93.47,96.85 C93.47,96.85 83.72,99.5 63.73,99.5 C43.74,99.5 34.53,96.85 34.53,96.85 L34.53,80.02 L93.46,79.95 L93.46,96.85 Z" fill="#E2A610"/>
  <path d="M91.05,95.11 L79.53,96.96 L79.53,83.42 L91.05,81.56 Z" fill="#9E740B"/>
  <path d="M87.95,79.9 C87.95,79.9 79.86,82 62.59,82 C45.32,82 40.05,79.9 40.05,79.9 L40.05,68.66 C40.05,68.66 43.35,76.08 63.43,74.47 C84.82,72.76 87.96,62.05 87.96,62.05 L87.96,79.9 Z" fill="#A12524"/>
  <path d="M87.96,76.67 C87.96,78.91 77.15,80.72 64,80.72 C50.85,80.72 40,78.91 40,76.67 C40,76.67 34.53,78.83 34.53,79.93 C34.53,82.7 47.72,84.95 64,84.95 C80.28,84.95 93.47,82.7 93.47,79.93 C93.47,78.82 87.96,76.5 87.96,76.67 Z" fill="#FFCA28"/>
  <path d="M50.99,83.9 C47.55,83.67 45.14,83.02 44.4,82.11 C43.28,80.74 44.59,79.93 46.02,80.09 C47.96,80.31 48.24,80.52 52.12,80.9 C56.65,81.34 60.04,81.34 58.97,82.69 C58.25,83.59 54.99,84.17 50.99,83.9 Z" fill="#FFF59D"/>
  <path d="M100.19,96.29 C100.19,96.29 88.36,100.89 64.27,100.89 C40.18,100.89 27.82,96.34 27.82,96.34 L27.86,118.16 C28.83,121.41 44.64,124 64,124 C83.36,124 99.17,121.41 100.14,118.15 L100.19,96.29 Z" fill="#424242"/>
  <path d="M96.5,120.56 C94.41,121.47 86.58,122.96 80.48,123.31 L80.48,101.5 L96.53,98.91 L96.5,120.56 Z" fill="#212121"/>
  <path d="M93.42,92.21 C93.42,94.96 80.14,97.18 64,97.18 C47.86,97.18 34.52,94.95 34.52,92.21 C34.52,92.21 27.81,94.86 27.81,96.21 C27.81,99.61 44.01,102.37 64,102.37 C83.99,102.37 100.19,99.61 100.19,96.21 C100.19,94.86 93.42,92.01 93.42,92.21 Z" fill="#757575"/>
  <path d="M55.42,101.12 C51.55,101.23 45,100.85 41.25,99.66 C37.63,98.51 39.3,95.87 42.5,96.42 C45.45,96.93 49.82,97.79 60.27,97.91 C63.4,97.94 63.56,98.99 63.36,99.66 C63.08,100.61 61.79,100.95 55.42,101.12 Z" fill="#90A4AE"/>
</svg>
